!!!OTL: Da ge yami shuai guo qu
!!!ARE: Asia, China,ÿHubei, Yunxi
!! I, 448
!!!SCT: C1455
!!!YEM: Copyright 1995, estate of Helmut Schaffrath.
**kern
*ICvox
*Ivox
!! 2+3 metric grouping
!! Mixed meters:  2/4; 5/8
*M2/4
*k[f#c#g#]
*A:
{16f#
16a
16f#
16a
4b
=1
8b
16b
16a
4f#}
=2
{8b
16a
16a
8b
8a
=3
16f#
16a
8e
8f#
8a
=4
8a
16f#
16f#
4e}
=5
*M5/8
{8cc#
16cc#
16b
8a
4b
=6
8a
16a
16f#
8cc#
8b
8a}
=7
{8b
8a
8f#
4e
=8
16e
16f#
8a
8f#
8e
8e}
=9
{8e
16e
16f#
8a
4a
=10
8a
16a
16f#
8cc#
8b
8a}
=11
{8b
8a
8f#
4e
=12
16e
16f#
8a
8e
8f#
16e
16f#
=13
4a
8e
4r}
==
!!!AGN: Shange, Fangniu shange, Zhange
!!!ONB: ESAC (Essen Associative Code) Database: HUANG
!!!AMT: irregular
!!!AIN: vox
!!!EED: Helmut Schaffrath
!!!EEV: 1.0
*-
